X: 7477
T: Cnocán An Teampaill
R: jig
M: 6/8
K: Dmixolydian
|:cAG A2G|ABG A2d|cAG A2G|ABA GED:|
|:EDE c2E|c2E GED|EDE cde|dcA GED:|

